X: 12773
T: Father Tom's Wager
R: jig
M: 6/8
K: Gmajor
|:dge dBG|AEF GDB,|G,B,D GBd|cBc ABc|
dge dBG|AEF GDB,|G,B,D GBd|cAF G2:|
|:Bdg bag|gfe edc|B/c/dB cAG|
[1 FAD D2 c|Bdg bag|gfe edc|B/c/dB cAF|AGF G3:|
[2 FAD Ddc|BAB GBd|cGE CEG|FEF Dba|gdB G3||

